X:1
T:Title
%%score { 1 | 2 }
L:1/8
Q:1/4=100
M:6/8
K:Bb
V:1 treble nm="Grand Piano"
V:2 bass 
V:1
 [B,D][CE][_D=E] [=DF][DB][_Ec] | dde d3 | BBB [GB][FA]>[EG] | [EG]3 [DF]3 | %4
w: O.~A.~Miller * * * * *||||
 [B,D][CE][_D=E] [=DF][DB][_Ec] | dde d3 | [Fd][DF][DB] [Fd][DF]>[DB] | [Ec]3 [DB]3 | %8
w: ||||
 [DF][DF][DF] [EG][EG][EG] | [DF]FF D3 | [DF][DF][DF] [EG][EG][EG] | [DF][FB]c d2 [Fd] | %12
w: ||||
 [=Ed][Ec]>[EG] c2 c | [Dd][DB]>[DF] [DB]2 [Fd] |[M:13/16] [Ff][Fd][FB][FA]G3/2G | %15
w: |||
 FB3/2c[DB]/-[DB]/-[DB]-<[DB] |] %16
w: |
V:2
 [B,,F,][B,,F,][B,,F,] [B,,B,][B,,B,][B,,B,] | [B,F][B,F][B,G] [B,F]3 | %2
 [G,B,D][K:bass][G,B,D][G,B,D] [E,B,][E,B,]>[E,B,] | [B,,B,]3 [B,,B,]3 | %4
 [B,,F,][B,,F,][B,,F,] [B,,B,][B,,B,][B,,B,] | [B,F][B,F][B,G] [B,F]3 | %6
 [B,,B,][B,,B,][B,,B,] [B,,B,][B,,F,]>[B,,F,] | [F,,F,]3 [B,,F,]3 | %8
 [B,,B,][B,,F,][B,,B,] [B,,B,][B,,B,][B,,B,] | [B,,B,][D,B,D][F,B,D] [B,,B,]3 | %10
 [B,,B,][B,,F,][B,,B,] [B,,B,][B,,B,][B,,B,] | %11
 [B,,B,][D,B,][K:treble][F,A,F] [B,F]2[K:bass] [B,,B,] | [C,G,][C,G,]>[C,B,] [F,A,E]2 [F,E] | %13
 [B,,F,][B,,F,]>[B,,B,] [B,,B,]2 [B,,B,] |[M:13/16] [D,B,][B,,B,][D,B,][E,B,][E,B,E]3/2[E,B,E] | %15
 [F,B,D][F,B,D]3/2[F,E][B,,F,]/-[B,,F,]/-[B,,F,]-<[B,,F,] |] %16

